X:139
T:Have Mercy On Me, O My God
%%stretchlast false
M:none
L:1/4
K:Ab clef=C1
"^iii"[CEc] [CGce] [CGce] [CGce]3 | "^iii¹"[EGce] "^IV"[DFAf] | "^ii¹"[DFBf] "^III"[C=EGg]2 "^iii"[CEcg] | "^III"[C=Ecg]2 "^V/iii"[G,=D=Bg] "^iii"[CEcg] | "^vi"[F,Fca] "^III"[C=Ecg]3 | "^iii"[CEc] [CEcg] [CEcg] [CEcg]3 | "^iii¹"[EGce] "^vi+"[DFcf] | "^ii¹"[DFBf] "^III"[C=EGg]2 "^iii"[CEcg] | "^III"[C=Ecg]2 "^iii"[CEcg] "^vi"[F,Fca] | "^♯vii"[F,FAf] "^III"[C=Ecg]3 | "^iii"[CEcg] [CEcg] [CEeg]/ "^vi7²"[CFea]/ "^vii°¹"[B,Gdb] | "^iii+"[A,Acc']2 "^V"[E,Geb] "^vi"[F,Fca] | [F,Fca] "^iii"[CEcg]2 [CGce] | "^vi"[F,Acf]2 "^vi¹"[A,Fc] "^ii"[B,Fcd] | [B,FBd] "^vi"[F,FAc]3 | [F,CAf] "^♯vii"[F,FAa]3/2 "^v"[F,EAg]/ "^IV¹"[F,DAf] | "^I"[A,CAe]2 [A,EAc] "^♯vii"[F,Af] | "^IV"[D,Af]/ "^♯iii°"[D,GAe]/ "^IV"[D,FAd] "^I"[A,EAc]2 | [A,CAe] "^IV"[D,FAd] "^ii¹"[D,FB] "^vi"[F,FAc] | [F,CAc]/ [F,=DAc]/ "^III"[C=EGc]3 |]
